packages/ffe-icons/icons/open/300/md/dashboard_customize.svg

<svg xmlns="http://www.w3.org/2000/svg" height="24" viewBox="0 -960 960 960" width="24"><path d="M166.154-530.001q-15.365 0-25.759-10.394t-10.394-25.759v-227.692q0-15.365 10.394-25.759t25.759-10.394h227.692q15.365 0 25.759 10.394t10.394 25.759v227.692q0 15.365-10.394 25.759t-25.759 10.394H166.154Zm23.845-240v180.002-180.002Zm376.155 240q-15.365 0-25.759-10.394t-10.394-25.759v-227.692q0-15.365 10.394-25.759t25.759-10.394h227.692q15.365 0 25.759 10.394t10.394 25.759v227.692q0 15.365-10.394 25.759t-25.759 10.394H566.154Zm23.845-240v180.002-180.002Zm-423.845 640q-15.365 0-25.759-10.394t-10.394-25.759v-227.692q0-15.365 10.394-25.759t25.759-10.394h227.692q15.365 0 25.759 10.394t10.394 25.759v227.692q0 15.365-10.394 25.759t-25.759 10.394H166.154Zm23.845-240v180.002-180.002Zm489.988 240q-12.756 0-21.371-8.625-8.615-8.624-8.615-21.374v-90.001H559q-12.384 0-20.692-8.628-8.307-8.629-8.307-21.384 0-12.756 8.624-21.371 8.625-8.615 21.375-8.615h90.001V-401q0-12.384 8.628-20.692 8.629-8.307 21.384-8.307 12.756 0 21.371 8.625 8.615 8.624 8.615 21.374v90.001H801q12.384 0 20.692 8.628 8.307 8.629 8.307 21.384 0 12.756-8.624 21.371-8.625 8.615-21.375 8.615h-90.001V-159q0 12.384-8.628 20.692-8.629 8.307-21.384 8.307Zm-89.988-640v180.002h180.002v-180.002H589.999Zm-400 0v180.002h180.002v-180.002H189.999Zm0 400v180.002h180.002v-180.002H189.999Z"/></svg>

<svg xmlns="http://www.w3.org/2000/svg" height="24" viewBox="0 -960 960 960" width="24"><path d="M166.15-530q-15.36 0-25.76-10.39Q130-550.79 130-566.15v-227.7q0-15.36 10.39-25.76Q150.79-830 166.15-830h227.7q15.36 0 25.76 10.39Q430-809.21 430-793.85v227.7q0 15.36-10.39 25.76Q409.21-530 393.85-530h-227.7ZM190-770v180-180Zm376.15 240q-15.36 0-25.76-10.39Q530-550.79 530-566.15v-227.7q0-15.36 10.39-25.76Q550.79-830 566.15-830h227.7q15.36 0 25.76 10.39Q830-809.21 830-793.85v227.7q0 15.36-10.39 25.76Q809.21-530 793.85-530h-227.7ZM590-770v180-180ZM166.15-130q-15.36 0-25.76-10.39Q130-150.79 130-166.15v-227.7q0-15.36 10.39-25.76Q150.79-430 166.15-430h227.7q15.36 0 25.76 10.39Q430-409.21 430-393.85v227.7q0 15.36-10.39 25.76Q409.21-130 393.85-130h-227.7ZM190-370v180-180Zm489.99 240q-12.76 0-21.37-8.63Q650-147.25 650-160v-90h-91q-12.38 0-20.69-8.63T530-280.01q0-12.76 8.63-21.37Q547.25-310 560-310h90v-91q0-12.38 8.63-20.69t21.38-8.31q12.76 0 21.37 8.63Q710-412.75 710-400v90h91q12.38 0 20.69 8.63t8.31 21.38q0 12.76-8.63 21.37Q812.75-250 800-250h-90v91q0 12.38-8.63 20.69T679.99-130ZM590-770v180h180v-180H590Zm-400 0v180h180v-180H190Zm0 400v180h180v-180H190Z"/></svg>
